static/fa/svgs/solid/kiwi-bird.svg

<svg xmlns="http://www.w3.org/2000/svg" viewBox="0 0 576 512"><!--! Font Awesome Free 6.1.1 by @fontawesome - https://fontawesome.com License - https://fontawesome.com/license/free (Icons: CC BY 4.0, Fonts: SIL OFL 1.1, Code: MIT License) Copyright 2022 Fonticons, Inc.--><path d="M256 405.1V456c0 13.3-10.7 24-24 24s-24-10.7-24-24v-40.7c-5.3.5-10.6.7-16 .7-16.6 0-32.7-2.1-48-6.9V456c0 13.3-10.7 24-24 24s-24-10.7-24-24v-65.7C38.61 357.1 0 295.1 0 224 0 117.1 85.96 32 192 32c36.3 0 70.3 10.08 99.2 27.6C322.4 78.44 355.9 96 392.3 96H448c70.7 0 128 57.3 128 128v240c0 6.1-4.5 13.2-11.2 15.3-6.6 2.1-13.9-.4-17.9-6.1l-85.3-121.9c-4.5.5-9 .7-13.6.7h-55.7c-36.4 0-69.9 17.6-101.1 36.4-11 6.7-22.8 12.3-35.2 16.7zM448 248c13.3 0 24-10.7 24-24s-10.7-24-24-24-24 10.7-24 24 10.7 24 24 24z"/></svg>

<svg xmlns="http://www.w3.org/2000/svg" viewBox="0 0 576 512"><!--! Font Awesome Free 6.1.1 by @fontawesome - https://fontawesome.com License - https://fontawesome.com/license/free (Icons: CC BY 4.0, Fonts: SIL OFL 1.1, Code: MIT License) Copyright 2022 Fonticons, Inc. --><path d="M256 405.1V456C256 469.3 245.3 480 232 480C218.7 480 208 469.3 208 456V415.3C202.7 415.8 197.4 416 192 416C175.4 416 159.3 413.9 144 409.1V456C144 469.3 133.3 480 120 480C106.7 480 96 469.3 96 456V390.3C38.61 357.1 0 295.1 0 224C0 117.1 85.96 32 192 32C228.3 32 262.3 42.08 291.2 59.6C322.4 78.44 355.9 96 392.3 96H448C518.7 96 576 153.3 576 224V464C576 470.1 571.5 477.2 564.8 479.3C558.2 481.4 550.9 478.9 546.9 473.2L461.6 351.3C457.1 351.8 452.6 352 448 352H392.3C355.9 352 322.4 369.6 291.2 388.4C280.2 395.1 268.4 400.7 256 405.1zM448 248C461.3 248 472 237.3 472 224C472 210.7 461.3 200 448 200C434.7 200 424 210.7 424 224C424 237.3 434.7 248 448 248z"/></svg>
